icons/assets/Group 311.svg

<svg width="76" height="76" viewBox="0 0 76 76" fill="none" xmlns="http://www.w3.org/2000/svg">
<circle cx="61" cy="15" r="15" fill="#FD8282" fill-opacity="0.5"/>
<mask id="mask0_662_5568" style="mask-type:alpha" maskUnits="userSpaceOnUse" x="10" y="13" width="57" height="51">
<path d="M10 13H66.441V63.5H10V13Z" fill="white"/>
</mask>
<g mask="url(#mask0_662_5568)">
<path fill-rule="evenodd" clip-rule="evenodd" d="M26.1889 15.9706C18.7768 15.9706 12.9706 21.5757 12.9706 28.7305C12.9706 37.8401 21.8476 45.64 35.2848 57.4451L38.2231 60.038L41.1199 57.5037C54.6191 45.6171 63.4706 37.8248 63.4706 28.7305C63.4706 21.5757 57.6644 15.9706 50.2515 15.9706C46.1164 15.9706 42.0365 17.8056 39.3358 20.8788C38.7731 21.5196 37.6672 21.5196 37.1045 20.8788C34.4047 17.8056 30.3222 15.9706 26.1889 15.9706ZM38.2206 63.5C37.8701 63.5 37.5187 63.3761 37.2386 63.1291L33.3607 59.7095C19.2784 47.3375 10 39.1845 10 28.7305C10 19.9104 17.1107 13 26.1889 13C30.6261 13 35.0132 14.7577 38.2206 17.7665C41.4271 14.7577 45.8151 13 50.2515 13C59.3296 13 66.4412 19.9104 66.4412 28.7305C66.4412 39.1666 57.1899 47.3128 43.1866 59.6399L39.1975 63.1308C38.9183 63.3778 38.5703 63.5 38.2206 63.5Z" fill="#0A3B70"/>
</g>
<path fill-rule="evenodd" clip-rule="evenodd" d="M17.4267 30.2158C16.6051 30.2158 15.9414 29.5513 15.9414 28.7305C15.9414 23.2417 20.4423 18.9412 26.1891 18.9412C26.9971 18.9412 27.8178 19.032 28.6284 19.2119C29.4296 19.391 29.9337 20.1846 29.7572 20.9849C29.5773 21.7853 28.7888 22.2852 27.9842 22.1129C27.3841 21.9796 26.7807 21.9118 26.1891 21.9118C22.1092 21.9118 18.912 24.907 18.912 28.7305C18.912 29.5513 18.2483 30.2158 17.4267 30.2158Z" fill="#0A3B70"/>
</svg>

<?xml version="1.0" encoding="utf-8"?>
<!-- Generator: Adobe Illustrator 26.0.1, SVG Export Plug-In . SVG Version: 6.00 Build 0)  -->
<svg version="1.1" id="Layer_1" xmlns="http://www.w3.org/2000/svg" xmlns:xlink="http://www.w3.org/1999/xlink" x="0px" y="0px"
	 viewBox="0 0 76 76" style="enable-background:new 0 0 76 76;" xml:space="preserve">
<style type="text/css">
	.st0{fill:#F6C3C3;}
	.st1{fill:#FFFFFF;filter:url(#Adobe_OpacityMaskFilter);}
	.st2{mask:url(#mask0_662_5568_00000025426493385938991060000002754721007760765056_);}
	.st3{fill-rule:evenodd;clip-rule:evenodd;fill:#0A3B70;}
</style>
<circle class="st0" cx="61" cy="15" r="15"/>
<defs>
	<filter id="Adobe_OpacityMaskFilter" filterUnits="userSpaceOnUse" x="10" y="13" width="56.4" height="50.5">
		<feColorMatrix  type="matrix" values="1 0 0 0 0  0 1 0 0 0  0 0 1 0 0  0 0 0 1 0"/>
	</filter>
</defs>
<mask maskUnits="userSpaceOnUse" x="10" y="13" width="56.4" height="50.5" id="mask0_662_5568_00000025426493385938991060000002754721007760765056_">
	<path class="st1" d="M10,13h56.4v50.5H10V13z"/>
</mask>
<g class="st2">
	<path class="st3" d="M26.2,16C18.8,16,13,21.6,13,28.7c0,9.1,8.9,16.9,22.3,28.7l2.9,2.6l2.9-2.5c13.5-11.9,22.4-19.7,22.4-28.8
		c0-7.2-5.8-12.8-13.2-12.8c-4.1,0-8.2,1.8-10.9,4.9c-0.6,0.6-1.7,0.6-2.2,0C34.4,17.8,30.3,16,26.2,16z M38.2,63.5
		c-0.4,0-0.7-0.1-1-0.4l-3.9-3.4C19.3,47.3,10,39.2,10,28.7C10,19.9,17.1,13,26.2,13c4.4,0,8.8,1.8,12,4.8c3.2-3,7.6-4.8,12-4.8
		c9.1,0,16.2,6.9,16.2,15.7c0,10.4-9.3,18.6-23.3,30.9l-4,3.5C38.9,63.4,38.6,63.5,38.2,63.5z"/>
</g>
<path class="st3" d="M17.4,30.2c-0.8,0-1.5-0.7-1.5-1.5c0-5.5,4.5-9.8,10.2-9.8c0.8,0,1.6,0.1,2.4,0.3c0.8,0.2,1.3,1,1.1,1.8
	c-0.2,0.8-1,1.3-1.8,1.1c-0.6-0.1-1.2-0.2-1.8-0.2c-4.1,0-7.3,3-7.3,6.8C18.9,29.6,18.2,30.2,17.4,30.2z"/>
</svg>
